images/nav-hamburger.svg

<?xml version="1.0" ?><svg height="12px" version="1.1" viewBox="0 0 22 12" width="22px" xmlns="http://www.w3.org/2000/svg" xmlns:sketch="http://www.bohemiancoding.com/sketch/ns" xmlns:xlink="http://www.w3.org/1999/xlink"><title/><defs><path d="M0.500836134,0 C0.224231975,0 0,0.214035034 0,0.504684448 L0,1.49531555 C0,1.77404508 0.217741728,2 0.500836134,2 L21.4991639,2 C21.775768,2 22,1.78596497 22,1.49531555 L22,0.504684448 C22,0.225954924 21.7822583,0 21.4991639,0 L0.500836134,0 Z M0.500836134,5 C0.224231975,5 0,5.21403503 0,5.50468445 L0,6.49531555 C0,6.77404508 0.217741728,7 0.500836134,7 L21.4991639,7 C21.775768,7 22,6.78596497 22,6.49531555 L22,5.50468445 C22,5.22595492 21.7822583,5 21.4991639,5 L0.500836134,5 Z M0.500836134,10 C0.224231975,10 0,10.214035 0,10.5046844 L0,11.4953156 C0,11.7740451 0.217741728,12 0.500836134,12 L21.4991639,12 C21.775768,12 22,11.785965 22,11.4953156 L22,10.5046844 C22,10.2259549 21.7822583,10 21.4991639,10 L0.500836134,10 Z" id="path-1"/></defs><g fill="none" fill-rule="evenodd" id="miu" stroke="none" stroke-width="1"><g id="editor_list_view_hambuger_menu_glyph"><use fill="#000000" fill-rule="evenodd" xlink:href="#path-1"/><use fill="none" xlink:href="#path-1"/></g></g></svg>

<svg height="12" viewBox="0 0 22 12" width="22" xmlns="http://www.w3.org/2000/svg" xmlns:xlink="http://www.w3.org/1999/xlink"><title/><defs><path d="M.501 0c-.277 0-.501.214-.501.505v.991c0 .279.218.505.501.505h20.998c.277 0 .501-.214.501-.505v-.991c0-.279-.218-.505-.501-.505h-20.998zm0 5c-.277 0-.501.214-.501.505v.991c0 .279.218.505.501.505h20.998c.277 0 .501-.214.501-.505v-.991c0-.279-.218-.505-.501-.505h-20.998zm0 5c-.277 0-.501.214-.501.505v.991c0 .279.218.505.501.505h20.998c.277 0 .501-.214.501-.505v-.991c0-.279-.218-.505-.501-.505h-20.998z" id="a"/></defs><g fill="none"><use fill="#000" xlink:href="#a"/><use xlink:href="#a"/></g></svg>
